X:1
T:Angleworm Angel
T:Angleworm Angel
T:Tim Smith
C:Tim Smith
L:1/8
Q:3/8=90
M:6/8
K:C
V:1 treble nm="Piano" snm="Pno."
V:1
"D" [d^f]3"A" [A^c]3 |"D" [d^f]3"A" [A^c]3 |"B" [^d^f]3"F#" [^A^c]3 |"Eb/Bb" [_eg]3"Bb" [_Bd]3 | %4
"Eb" [_eg]3"G" [Bd]3 |[M:2/4]"Db" z4 |"F" z4 |:"G" B^c d2 | B^c d2 | B^c de |"B" ^d^c B2 | %11
"G" B^c d2 | B^c d2 |"E" ^g2 e2 |"C" g^f e2 |"G" B^c d2 | B^c d2 | B^c de |"B" ^d^c B2 | %19
"G" B^c d2 | B^c d2 | B^c de |"Bb" d2"F" c2 |"Db" f2"Ab" c2 ::[M:6/8]"D" ^fff"A" ^c2 c | %25
"D" ^fff"A" ^c2 c |"B" ^fff"F#" ^c2 c |"Eb/Bb" ggg"Bb" d2 d |"Eb" ggg"G" d2 d |[M:2/4]"Db" fg _a2 | %30
"F" ag"^etc." f2 :| %31

